vendor/shopware/storefront/Resources/app/storefront/dist/assets/icon/default/duplicate.svg

<svg xmlns="http://www.w3.org/2000/svg" width="24" height="24" viewBox="0 0 24 24">
  <path fill="#758CA3" fill-rule="evenodd" d="M18,6 L16,6 C16,5.84190034 16,5.68788342 16,5.53794924 C16,5.35237867 16,5.17306226 16,5 C16,4.59682236 16,3.93015569 16,3 C16,2.44771525 15.5522847,2 15,2 L3,2 C2.44771525,2 2,2.44771525 2,3 L2,15 C2,15.5522847 2.44771525,16 3,16 L6,16 L6,18 L3,18 C1.34314575,18 2.02906125e-16,16.6568542 0,15 L1.33226763e-15,3 C6.85272294e-16,1.34314575 1.34314575,9.65007696e-16 3,1.77635684e-15 L15,1.77635684e-15 C16.6568542,2.71604841e-15 18,1.34314575 18,3 C18,3.90871929 18,4.57538596 18,5 C18,5.30548218 18,5.63122329 18,5.97722334 L18,6 Z M16,14 L18,14 C18.5522847,14 19,14.4477153 19,15 C19,15.5522847 18.5522847,16 18,16 L16,16 L16,18 C16,18.5522847 15.5522847,19 15,19 C14.4477153,19 14,18.5522847 14,18 L14,16 L12,16 C11.4477153,16 11,15.5522847 11,15 C11,14.4477153 11.4477153,14 12,14 L14,14 L14,12 C14,11.4477153 14.4477153,11 15,11 C15.5522847,11 16,11.4477153 16,12 L16,14 Z M9,6 L21,6 C22.6568542,6 24,7.34314575 24,9 L24,21 C24,22.6568542 22.6568542,24 21,24 L9,24 C7.34314575,24 6,22.6568542 6,21 L6,9 C6,7.34314575 7.34314575,6 9,6 Z M9,8 C8.44771525,8 8,8.44771525 8,9 L8,21 C8,21.5522847 8.44771525,22 9,22 L21,22 C21.5522847,22 22,21.5522847 22,21 L22,9 C22,8.44771525 21.5522847,8 21,8 L9,8 Z"/>
</svg>

<svg xmlns="http://www.w3.org/2000/svg" width="24" height="24" viewBox="0 0 24 24"><path fill="#758CA3" fill-rule="evenodd" d="M18 6h-2V3c0-.5523-.4477-1-1-1H3c-.5523 0-1 .4477-1 1v12c0 .5523.4477 1 1 1h3v2H3c-1.6569 0-3-1.3431-3-3V3c0-1.6569 1.3431-3 3-3h12c1.6569 0 3 1.3431 3 3v3zm-2 8h2c.5523 0 1 .4477 1 1s-.4477 1-1 1h-2v2c0 .5523-.4477 1-1 1s-1-.4477-1-1v-2h-2c-.5523 0-1-.4477-1-1s.4477-1 1-1h2v-2c0-.5523.4477-1 1-1s1 .4477 1 1v2zM9 6h12c1.6569 0 3 1.3431 3 3v12c0 1.6569-1.3431 3-3 3H9c-1.6569 0-3-1.3431-3-3V9c0-1.6569 1.3431-3 3-3zm0 2c-.5523 0-1 .4477-1 1v12c0 .5523.4477 1 1 1h12c.5523 0 1-.4477 1-1V9c0-.5523-.4477-1-1-1H9z"/></svg>
